X:1
T:Title
%%score ( 1 2 ) { 3 | 4 }
L:1/8
Q:1/4=108
M:4/4
K:Bb
V:1 treble nm="Grand Piano, Soprano"
V:2 treble 
V:3 bass nm="Choir Pad, With a Perfect Heart"
V:4 bass 
V:1
 [DF]2 [DB]2 [DB]2 [CA][DB] | [Ec]2 [EG]2 [FA]2 [EG]2 | F2 [FB]2 [=EB]2 AB | %3
w: By~Ward~Rockwell * * * *|||
 [=Ed]2 [Ec]2 c2- [_Ec]2 | [DF]2 [DB]2 [DB]2 [Ec][Fd] | [Ge]2 [EG]2 [FA]2 [EG]2 | %6
w: |||
 [DF]2 [DB]2 [DB]2 [CA][DB] | [Ec]2 [Fd]2 [DB]4 | [Ee]2 [EG]2 [EG]2 [FA][EG] | [EG]2 [DF]2 [FB]4 | %10
w: ||||
 [=Ed]2 [Ec]2 [EG]2 [Ed]2 | c4- [Ec]4 | [DF]2 [DB]2 [DB]2 [Ec][Fd] | [Ge]2 [EG]2 [FA]2 [EG]2 | %14
w: ||||
 [DF]2 [DB]2 [Ec]2 [Fd]2 | [DB]8 |] %16
w: ||
V:2
 x8 | x8 | z4 z2 =E2 | z4 F2 z2 | x8 | x8 | x8 | x8 | x8 | x8 | x8 | F4 z4 | x8 | x8 | x8 | x8 |] %16
V:3
 B,2 F,2 F,2 F,2 | G,2 B,2 A,2 B,2 | B,2 B,2 C2 C2 | B,2 B,2 A,4 | B,2 F,2 F,2 B,2 | %5
 B,2 B,2 B,2 B,2 | B,2 F,2 F,2 F,2 | F,2 F,2 F,4 | G,2 B,2 B,2 B,B, | B,2 B,2 B,4 | %10
 G,2 G,2 B,2 B,2 | A,8 | B,2 F,2 F,2 B,B, | B,2 B,2 B,4 | B,2 B,2 A,2 F,2 | F,8 |] %16
V:4
 B,,2 B,,2 B,,2 B,,2 | E,2 E,2 E,2 E,2 | D,2 D,2 G,2 G,2 | C,2 C,2 F,4 | B,,2 B,,2 B,,2 B,,2 | %5
 E,2 E,2 E,2 E,2 | F,2 z2 z4 | F,,2 F,,2 B,,4 | E,2 E,2 E,2 E,E, | B,,2 B,,2 D,4 | %10
 C,2 C,2 C,2 C,2 | F,8 | B,,2 B,,2 B,,2 B,,B,, | E,2 E,2 E,4 | F,2 F,2 [F,,F,]2 F,,2 | B,,8 |] %16

